svg/fluentui-system-icons/ic_fluent_text_change_case_16_filled.svg

<svg width="16" height="16" viewBox="0 0 16 16" fill="none" xmlns="http://www.w3.org/2000/svg">
<path d="M11 2.25C11.3142 2.25 11.5951 2.44587 11.7038 2.74072L15.2038 12.2407C15.347 12.6294 15.148 13.0606 14.7593 13.2038C14.3706 13.347 13.9394 13.148 13.7962 12.7593L12.8718 10.25H9.12823L8.20376 12.7593C8.06056 13.148 7.6294 13.347 7.24072 13.2038C6.85205 13.0606 6.65305 12.6294 6.79624 12.2407L10.2962 2.74072C10.4049 2.44587 10.6858 2.25 11 2.25ZM11 5.16948L9.68086 8.75H12.3191L11 5.16948ZM6.125 8.87378V12.6742C6.09048 12.7563 6.00373 12.9346 5.93289 12.9913C5.83977 13.0807 5.71899 13.1415 5.58465 13.1597L5.57624 13.1606L5.5 13.1654C5.20067 13.1654 4.95066 12.9551 4.88937 12.6742C4.28278 12.9964 3.70927 13.1654 3.16667 13.1654C1.87504 13.1654 0.875 12.2495 0.875 10.8738C0.875 10.269 1.08405 9.73635 1.47028 9.33435C1.85586 8.93302 2.41081 8.66921 3.09141 8.58666C3.67584 8.51578 4.26815 8.55062 4.86578 8.68889C4.84034 8.42619 4.75704 8.23814 4.62168 8.10673C4.45812 7.94793 4.19728 7.85098 3.80229 7.83134C3.16878 7.79984 2.75305 7.8915 2.52393 8.05217C2.24132 8.25035 1.85155 8.1819 1.65337 7.89929C1.45519 7.61667 1.52364 7.22691 1.80625 7.02873C2.27469 6.70024 2.90187 6.56206 3.669 6.57617L3.67099 6.57623L3.86437 6.58289C4.54035 6.6165 5.09262 6.82876 5.48379 7.20183C5.87567 7.57559 6.09376 8.09926 6.12188 8.73166L6.12197 8.73447L6.125 8.87378ZM2.39304 10.2016C2.21637 10.3756 2.125 10.6094 2.125 10.898C2.125 11.2357 2.23402 11.4931 2.41124 11.6661C2.58895 11.8395 2.84714 11.9397 3.16667 11.9397C3.58432 11.9397 4.11813 11.7454 4.76454 11.3184L4.87433 11.2436V10.0094L4.76299 9.97624C4.23964 9.83245 3.73383 9.79215 3.24192 9.85181C2.84929 9.89943 2.57163 10.0258 2.39304 10.2016Z" fill="#212121"/>
</svg>

<svg xmlns="http://www.w3.org/2000/svg" width="16" height="16"><path d="M11 2.25a.75.75 0 0 1 .704.49l3.5 9.5a.75.75 0 0 1-1.408.52l-.924-2.51H9.128l-.924 2.51a.75.75 0 1 1-1.408-.52l3.5-9.5A.75.75 0 0 1 11 2.25Zm0 2.92L9.68 8.75h2.64L11 5.17ZM6.125 8.873v3.8c-.035.082-.121.26-.192.317a.623.623 0 0 1-.348.169h-.009l-.076.005c-.3 0-.55-.21-.61-.49-.607.321-1.18.49-1.723.49-1.292 0-2.292-.915-2.292-2.291 0-.605.209-1.138.595-1.54.386-.401.94-.665 1.621-.747a5.1 5.1 0 0 1 1.775.102c-.026-.263-.109-.45-.244-.582-.164-.16-.425-.256-.82-.276-.633-.031-1.049.06-1.278.221a.625.625 0 0 1-.718-1.023c.469-.329 1.096-.467 1.863-.453h.002l.193.007c.676.034 1.229.246 1.62.619.392.374.61.897.638 1.53v.002l.003.14Zm-3.732 1.328c-.177.174-.268.407-.268.696 0 .338.109.595.286.768.178.173.436.274.756.274.417 0 .951-.195 1.598-.622l.11-.074v-1.235l-.112-.033a3.913 3.913 0 0 0-1.521-.124c-.393.047-.67.174-.849.35Z"/></svg>
